image-refresh.svg

<svg fill="currentColor" viewBox="0 0 24 24"><path d="M12 18.5c0 .89.18 1.73.5 2.5H5a2 2 0 0 1-2-2V5c0-1.1.9-2 2-2h14a2 2 0 0 1 2 2v7.5c-.77-.32-1.61-.5-2.5-.5-1.21 0-2.34.34-3.31.92L14.5 12 11 16.5l-2.5-3L5 18h7.03c-.03.17-.03.33-.03.5m10 0v-4l-1.17 1.17A4 4 0 0 0 18 14.5c-2.21 0-4 1.79-4 4s1.79 4 4 4c1.68 0 3.12-1.03 3.71-2.5H20a2.5 2.5 0 1 1-.23-3.27L18 18.5z"/></svg>

<svg  viewBox="0 0 24 24" fill="currentColor"><path  d="M12 18.5C12 19.39 12.18 20.23 12.5 21H5C3.9 21 3 20.11 3 19V5C3 3.9 3.9 3 5 3H19C20.1 3 21 3.89 21 5V12.5C20.23 12.18 19.39 12 18.5 12C17.29 12 16.16 12.34 15.19 12.92L14.5 12L11 16.5L8.5 13.5L5 18H12.03C12 18.17 12 18.33 12 18.5M22 18.5V14.5L20.83 15.67C20.11 14.95 19.11 14.5 18 14.5C15.79 14.5 14 16.29 14 18.5S15.79 22.5 18 22.5C19.68 22.5 21.12 21.47 21.71 20H20C19.54 20.61 18.82 21 18 21C16.62 21 15.5 19.88 15.5 18.5S16.62 16 18 16C18.69 16 19.32 16.28 19.77 16.73L18 18.5H22Z"/></svg>
